svgs/defaultWeather.svg

<svg width="24" height="24" viewBox="0 0 24 24" fill="none" xmlns="http://www.w3.org/2000/svg">
<path d="M11.9968 17.8873C12.2178 17.8873 12.4311 17.9683 12.5963 18.115C12.7614 18.2617 12.8669 18.4638 12.8928 18.683L12.8991 18.7885V20.1007C12.8986 20.3303 12.8104 20.5511 12.6524 20.7179C12.4945 20.8848 12.2788 20.9851 12.0493 20.9985C11.8198 21.0118 11.5938 20.9372 11.4176 20.7897C11.2414 20.6423 11.1281 20.4332 11.1009 20.2052L11.0946 20.1007V18.7885C11.0946 18.5495 11.1897 18.3202 11.3589 18.1512C11.5281 17.9822 11.7576 17.8873 11.9968 17.8873ZM17.4426 16.1461L18.3719 17.0744C18.5362 17.2445 18.6269 17.4722 18.6247 17.7085C18.6225 17.9448 18.5275 18.1707 18.3601 18.3377C18.1927 18.5047 17.9663 18.5993 17.7297 18.6012C17.4932 18.6031 17.2653 18.5121 17.0953 18.3478L16.1669 17.4204C16.0026 17.2505 15.9116 17.0228 15.9137 16.7865C15.9157 16.5502 16.0106 16.3242 16.1779 16.1571C16.3452 15.99 16.5715 15.8952 16.808 15.8932C17.0446 15.8911 17.2725 15.9819 17.4426 16.1461ZM7.82499 16.1461C7.99413 16.3151 8.08914 16.5443 8.08914 16.7833C8.08914 17.0222 7.99413 17.2514 7.82499 17.4204L6.8975 18.3487C6.72821 18.5178 6.4986 18.6128 6.25918 18.6128C6.01977 18.6128 5.79016 18.5178 5.62086 18.3487C5.45157 18.1796 5.35646 17.9502 5.35646 17.7111C5.35646 17.4719 5.45157 17.2426 5.62086 17.0735L6.55015 16.1452C6.71934 15.9763 6.94878 15.8813 7.18802 15.8813C7.42725 15.8813 7.6567 15.9763 7.82589 16.1452L7.82499 16.1461ZM12.0086 7.01854C13.3306 7.01854 14.5985 7.54314 15.5333 8.47693C16.4682 9.41072 16.9933 10.6772 16.9933 11.9978C16.9933 13.3184 16.4682 14.5849 15.5333 15.5186C14.5985 16.4524 13.3306 16.977 12.0086 16.977C10.6865 16.977 9.41864 16.4524 8.48382 15.5186C7.54899 14.5849 7.02381 13.3184 7.02381 11.9978C7.02381 10.6772 7.54899 9.41072 8.48382 8.47693C9.41864 7.54314 10.6865 7.01854 12.0086 7.01854ZM11.3229 9.29683C11.1594 9.29684 11.0014 9.35599 10.8782 9.46335C10.7549 9.5707 10.6748 9.719 10.6525 9.88082L10.6462 9.97275V12.68L10.6525 12.7719C10.6727 12.9182 10.7402 13.0539 10.8448 13.1582C10.9494 13.2625 11.0853 13.3297 11.2318 13.3496L11.3229 13.3559H13.1273L13.2194 13.3496C13.3657 13.3296 13.5014 13.2622 13.6058 13.1579C13.7102 13.0536 13.7776 12.9181 13.7977 12.7719L13.804 12.68L13.7977 12.5881C13.7776 12.442 13.7102 12.3064 13.6058 12.2021C13.5014 12.0978 13.3657 12.0305 13.2194 12.0104L13.1273 12.0041H11.9996V9.97275L11.9941 9.88082C11.9719 9.71885 11.8916 9.57043 11.7682 9.46305C11.6448 9.35567 11.4866 9.29662 11.3229 9.29683ZM20.0988 11.1155C20.3287 11.1157 20.5499 11.2037 20.7171 11.3614C20.8843 11.5191 20.985 11.7346 20.9984 11.9639C21.0119 12.1932 20.9372 12.419 20.7896 12.5951C20.642 12.7713 20.4327 12.8845 20.2043 12.9116L20.0988 12.9179H18.786C18.5561 12.9177 18.3349 12.8297 18.1677 12.672C18.0005 12.5144 17.8999 12.2988 17.8864 12.0695C17.8729 11.8402 17.9476 11.6144 18.0952 11.4383C18.2428 11.2621 18.4521 11.1489 18.6805 11.1218L18.786 11.1155H20.0988ZM5.21486 11.0903C5.44482 11.0905 5.666 11.1785 5.83322 11.3362C6.00043 11.4938 6.10106 11.7094 6.11453 11.9387C6.12801 12.168 6.05332 12.3938 5.90573 12.5699C5.75813 12.7461 5.54877 12.8593 5.32042 12.8864L5.21486 12.8927H3.90033C3.67045 12.8922 3.44942 12.8041 3.28238 12.6463C3.11534 12.4886 3.01488 12.2731 3.00153 12.0438C2.98817 11.8146 3.06292 11.5889 3.21051 11.4129C3.3581 11.2368 3.5674 11.1237 3.79567 11.0966L3.90033 11.0903H5.21486ZM6.81179 5.57839L6.8975 5.65319L7.82589 6.58145C7.9877 6.74363 8.08164 6.96126 8.08864 7.19012C8.09564 7.41899 8.01516 7.64193 7.86356 7.81367C7.71195 7.98541 7.50059 8.09307 7.2724 8.11479C7.04421 8.1365 6.8163 8.07064 6.63496 7.93058L6.55015 7.85488L5.62086 6.92752C5.45905 6.76534 5.36511 6.54772 5.35811 6.31885C5.35111 6.08999 5.43159 5.86704 5.58319 5.6953C5.7348 5.52356 5.94616 5.4159 6.17435 5.39418C6.40254 5.37247 6.63045 5.43833 6.81179 5.57839ZM18.3719 5.65319C18.5273 5.80838 18.6206 6.01485 18.6344 6.23387C18.6482 6.45289 18.5815 6.66941 18.4468 6.84281L18.3719 6.92752L17.4426 7.85578C17.2803 8.01741 17.0624 8.11125 16.8333 8.11824C16.6042 8.12523 16.381 8.04484 16.2091 7.89341C16.0371 7.74197 15.9293 7.53084 15.9076 7.3029C15.8859 7.07496 15.9518 6.8473 16.092 6.66617L16.1669 6.58055L17.0962 5.65229C17.2654 5.48334 17.4948 5.38843 17.7341 5.38843C17.9733 5.38843 18.2027 5.48424 18.3719 5.65319ZM11.9996 3C12.2205 3.00003 12.4338 3.08107 12.599 3.22775C12.7641 3.37443 12.8696 3.57656 12.8955 3.79578L12.9018 3.90122V5.2125C12.9036 5.4436 12.8165 5.66657 12.6584 5.83534C12.5003 6.0041 12.2834 6.10576 12.0524 6.11929C11.8215 6.13283 11.5941 6.05722 11.4174 5.90808C11.2406 5.75894 11.128 5.54767 11.1027 5.31794L11.0973 5.2125V3.90122C11.0973 3.6622 11.1924 3.43297 11.3616 3.26396C11.5308 3.09495 11.7603 3 11.9996 3Z" fill="#FDFDFD"/>
</svg>

<svg width="24" height="24" viewBox="0 0 24 24" xmlns="http://www.w3.org/2000/svg">
    <path fill="#FDFDFD"
        d="M11.997 17.887a.903.903 0 0 1 .896.796l.006.105v1.313a.9.9 0 0 1-.85.898.903.903 0 0 1-.948-.794l-.006-.104v-1.313a.9.9 0 0 1 .902-.9Zm5.446-1.74.929.927a.9.9 0 0 1-1.277 1.274l-.928-.928a.9.9 0 0 1 1.276-1.274Zm-9.618 0a.9.9 0 0 1 0 1.273l-.928.929a.903.903 0 0 1-1.276-1.276l.93-.928a.903.903 0 0 1 1.275 0l-.001.001Zm4.184-9.128c1.322 0 2.59.524 3.524 1.458a4.976 4.976 0 0 1 0 7.042 4.987 4.987 0 0 1-8.51-3.521c0-1.32.526-2.587 1.46-3.521a4.988 4.988 0 0 1 3.526-1.458Zm-.686 2.278a.677.677 0 0 0-.67.584l-.007.092v2.707l.006.092a.676.676 0 0 0 .58.578l.09.006h1.805l.092-.006a.676.676 0 0 0 .579-.578l.006-.092-.006-.092a.676.676 0 0 0-.579-.578l-.092-.006H12V9.973l-.006-.092a.675.675 0 0 0-.671-.584Zm8.776 1.819a.902.902 0 0 1 .105 1.796l-.105.006h-1.313a.902.902 0 0 1-.106-1.796l.106-.006h1.313ZM5.215 11.09a.902.902 0 0 1 .69 1.48.902.902 0 0 1-.585.316l-.105.007H3.9a.903.903 0 0 1-.69-1.48.902.902 0 0 1 .586-.316l.104-.007h1.315Zm1.597-5.512.085.075.929.928a.9.9 0 0 1-1.191 1.35l-.085-.076-.93-.927a.9.9 0 0 1 1.192-1.35Zm11.56.075a.9.9 0 0 1 .075 1.19l-.075.085-.93.928a.903.903 0 0 1-1.35-1.19l.075-.085.93-.929a.903.903 0 0 1 1.275.001ZM12 3a.903.903 0 0 1 .896.796l.006.105v1.312a.9.9 0 0 1-1.485.695.901.901 0 0 1-.314-.59l-.006-.105V3.9A.9.9 0 0 1 12 3Z" />
</svg>
